build/assets/images/svg/icons/lk/personal_account/car.svg

<svg width="48" height="48" viewBox="0 0 48 48" fill="none" xmlns="http://www.w3.org/2000/svg">
<rect width="48" height="48" rx="24" fill="#F4F7FB"/>
<path fill-rule="evenodd" clip-rule="evenodd" d="M19.0002 33C20.3065 33 21.4177 32.1652 21.8295 31H28.1709C28.5828 32.1652 29.694 33 31.0002 33C32.3065 33 33.4177 32.1652 33.8295 31H34.0002C34.5525 31 35.0002 30.5523 35.0002 30V26.6366C35.0002 26.077 34.8828 25.5235 34.6555 25.0121L33.7059 22.8754C33.0639 21.4309 31.6314 20.5 30.0506 20.5H28.0002V19C28.0002 16.7909 26.2094 15 24.0002 15H17.0002C14.7911 15 13.0002 16.7909 13.0002 19V29C13.0002 30.1046 13.8957 31 15.0002 31H16.1709C16.5828 32.1652 17.694 33 19.0002 33ZM15.0002 19C15.0002 17.8954 15.8957 17 17.0002 17H24.0002C25.1048 17 26.0002 17.8954 26.0002 19V29H21.8295C21.4177 27.8348 20.3065 27 19.0002 27C17.694 27 16.5828 27.8348 16.1709 29H15.0002V19ZM32.8279 25.8244C32.9415 26.0801 33.0002 26.3568 33.0002 26.6366V27.7639C32.4695 27.2889 31.7686 27 31.0002 27C29.694 27 28.5828 27.8348 28.1709 29H28.0002V22.5H30.0506C30.841 22.5 31.5572 22.9655 31.8782 23.6877L32.8279 25.8244ZM18.0002 30C18.0002 29.4477 18.448 29 19.0002 29C19.5525 29 20.0002 29.4477 20.0002 30C20.0002 30.5523 19.5525 31 19.0002 31C18.448 31 18.0002 30.5523 18.0002 30ZM30.0002 30C30.0002 29.4477 30.448 29 31.0002 29C31.5525 29 32.0002 29.4477 32.0002 30C32.0002 30.5523 31.5525 31 31.0002 31C30.448 31 30.0002 30.5523 30.0002 30Z" fill="#203686" stroke="white" stroke-width="0.1" stroke-linecap="round" stroke-linejoin="round"/>
</svg>

<svg width="48" height="48" fill="none" xmlns="http://www.w3.org/2000/svg"><rect width="48" height="48" rx="24" fill="#F4F7FB"/><path fill-rule="evenodd" clip-rule="evenodd" d="M19 33a3.001 3.001 0 002.83-2h6.34a3.001 3.001 0 005.66 0H34a1 1 0 001-1v-3.363a4 4 0 00-.344-1.625l-.95-2.137A4 4 0 0030.05 20.5H28V19a4 4 0 00-4-4h-7a4 4 0 00-4 4v10a2 2 0 002 2h1.17A3.001 3.001 0 0019 33zm-4-14a2 2 0 012-2h7a2 2 0 012 2v10h-4.17a3.001 3.001 0 00-5.66 0H15V19zm17.828 6.824a2 2 0 01.172.813v1.127A3.001 3.001 0 0028.17 29H28v-6.5h2.05a2 2 0 011.828 1.188l.95 2.136zM18 30a1 1 0 112 0 1 1 0 01-2 0zm12 0a1 1 0 112 0 1 1 0 01-2 0z" fill="#203686" stroke="#fff" stroke-width=".1" stroke-linecap="round" stroke-linejoin="round"/></svg>
